icons/op-relations-16.svg

<svg width="16" height="16" viewBox="0 0 16 16" fill="none" xmlns="http://www.w3.org/2000/svg">
<path fill-rule="evenodd" clip-rule="evenodd" d="M1 5.06151C1 2.82213 2.81643 1 5.06547 1C7.05724 1 8.70972 2.42911 9.06171 4.31151H10.7153C11.0223 3.46143 11.8364 2.85384 12.7923 2.85384C14.0116 2.85384 15 3.84224 15 5.06151C15 6.28077 14.0116 7.26918 12.7923 7.26918C11.8364 7.26918 11.0223 6.66158 10.7153 5.81151H9.06171C8.95632 6.3751 8.73436 6.89807 8.42161 7.3542L9.64828 8.58087C9.93255 8.44753 10.2499 8.37303 10.5847 8.37303C11.8039 8.37303 12.7923 9.36144 12.7923 10.5807C12.7923 11.8 11.8039 12.7884 10.5847 12.7884C9.36539 12.7884 8.37699 11.8 8.37699 10.5807C8.37699 10.2459 8.45149 9.92859 8.58483 9.64432L7.35727 8.41676C6.90269 8.72732 6.38162 8.94811 5.81942 9.05337V10.5807C5.81942 10.6244 5.81567 10.6672 5.80846 10.7088C6.6622 11.0139 7.27314 11.8298 7.27314 12.7884C7.27314 14.0076 6.28473 14.996 5.06547 14.996C3.8462 14.996 2.85779 14.0076 2.85779 12.7884C2.85779 11.8298 3.46873 11.0139 4.32247 10.7088C4.31526 10.6672 4.3115 10.6244 4.3115 10.5807V9.05337C2.42403 8.69998 1 7.0443 1 5.06151ZM5.06547 2.5C3.65671 2.5 2.50792 3.6431 2.50792 5.06151C2.50792 6.47992 3.65671 7.62302 5.06547 7.62302C6.47423 7.62302 7.62302 6.47992 7.62302 5.06151C7.62302 3.6431 6.47423 2.5 5.06547 2.5ZM12.7923 5.76918C13.1713 5.76918 13.4921 5.4598 13.4921 5.06151C13.4921 4.66321 13.1713 4.35384 12.7923 4.35384C12.4133 4.35384 12.0926 4.66321 12.0926 5.06151C12.0926 5.4598 12.4133 5.76918 12.7923 5.76918ZM11.2844 10.5807C11.2844 10.979 10.9636 11.2884 10.5847 11.2884C10.2057 11.2884 9.8849 10.979 9.8849 10.5807C9.8849 10.1824 10.2057 9.87303 10.5847 9.87303C10.9636 9.87303 11.2844 10.1824 11.2844 10.5807ZM5.06547 13.496C5.44445 13.496 5.76522 13.1867 5.76522 12.7884C5.76522 12.3901 5.44445 12.0807 5.06547 12.0807C4.68648 12.0807 4.36571 12.3901 4.36571 12.7884C4.36571 13.1867 4.68648 13.496 5.06547 13.496Z" fill="#1F2328"/>
</svg>

<svg xmlns="http://www.w3.org/2000/svg" width="16" height="16" viewBox="0 0 16 16"><path d="M1 5.062A4.063 4.063 0 0 1 5.065 1a4.066 4.066 0 0 1 3.997 3.312h1.653a2.208 2.208 0 1 1 0 1.5H9.062a4.06 4.06 0 0 1-.64 1.542l1.226 1.227a2.209 2.209 0 1 1 .937 4.207 2.207 2.207 0 0 1-2-3.144L7.357 8.417c-.454.31-.975.531-1.538.636v1.528a.684.684 0 0 1-.011.128 2.208 2.208 0 1 1-1.486 0 .78.78 0 0 1-.01-.128V9.053A4.063 4.063 0 0 1 1 5.062ZM5.065 2.5a2.56 2.56 0 0 0-2.557 2.562 2.56 2.56 0 0 0 2.557 2.561 2.56 2.56 0 0 0 2.558-2.561A2.56 2.56 0 0 0 5.065 2.5Zm7.727 3.269c.379 0 .7-.309.7-.707a.704.704 0 0 0-.7-.708.703.703 0 0 0-.699.708c0 .398.32.707.699.707Zm-1.508 4.812a.703.703 0 0 0-.699-.708c-.379 0-.7.309-.7.708 0 .398.321.707.7.707a.703.703 0 0 0 .699-.707Zm-6.219 2.915c.379 0 .7-.309.7-.708a.704.704 0 0 0-.7-.707.703.703 0 0 0-.699.707c0 .399.32.708.699.708Z"/></svg>
